wp-expand-tabs-free/admin/img/tabs-alignment/horizontal-top/horizontal-center.svg

<svg width="120" height="92" viewBox="0 0 120 92" fill="none" xmlns="http://www.w3.org/2000/svg">
<rect x="1" y="1" width="118" height="90" rx="3" fill="white"/>
<path d="M27 26H28V25V18C28 17.5003 28.0021 17.2262 28.0277 17.036C28.028 17.0335 28.0284 17.0311 28.0287 17.0287C28.0311 17.0284 28.0335 17.028 28.036 17.0277C28.2262 17.0021 28.5003 17 29 17H45C45.4997 17 45.7738 17.0021 45.964 17.0277C45.9665 17.028 45.9689 17.0284 45.9713 17.0287C45.9716 17.0311 45.972 17.0335 45.9723 17.036C45.9979 17.2262 46 17.5003 46 18V25V26H47H98C98.4997 26 98.7738 26.0021 98.964 26.0277C98.9665 26.028 98.9689 26.0284 98.9713 26.0287C98.9716 26.0311 98.972 26.0335 98.9723 26.036C98.9979 26.2262 99 26.5003 99 27V74C99 74.4997 98.9979 74.7738 98.9723 74.964C98.972 74.9665 98.9716 74.9689 98.9713 74.9713C98.9689 74.9716 98.9665 74.972 98.964 74.9723C98.7738 74.9979 98.4997 75 98 75H22C21.5003 75 21.2262 74.9979 21.036 74.9723C21.0335 74.972 21.0311 74.9716 21.0287 74.9713C21.0284 74.9689 21.028 74.9665 21.0277 74.964C21.0021 74.7738 21 74.4997 21 74V27C21 26.5003 21.0021 26.2262 21.0277 26.036C21.028 26.0335 21.0284 26.0311 21.0287 26.0287C21.0311 26.0284 21.0335 26.028 21.036 26.0277C21.2262 26.0021 21.5003 26 22 26H27Z" fill="white" stroke="#8796A1" stroke-width="2"/>
<path d="M51 18C51 17.0572 51 16.5858 51.2929 16.2929C51.5858 16 52.0572 16 53 16H68C68.9428 16 69.4142 16 69.7071 16.2929C70 16.5858 70 17.0572 70 18V25C70 25.9428 70 26.4142 69.7071 26.7071C69.4142 27 68.9428 27 68 27H53C52.0572 27 51.5858 27 51.2929 26.7071C51 26.4142 51 25.9428 51 25V18Z" fill="#8796A1"/>
<path d="M74 18C74 17.0572 74 16.5858 74.2929 16.2929C74.5858 16 75.0572 16 76 16H91C91.9428 16 92.4142 16 92.7071 16.2929C93 16.5858 93 17.0572 93 18V25C93 25.9428 93 26.4142 92.7071 26.7071C92.4142 27 91.9428 27 91 27H76C75.0572 27 74.5858 27 74.2929 26.7071C74 26.4142 74 25.9428 74 25V18Z" fill="#8796A1"/>
<rect x="1" y="1" width="118" height="90" rx="3" stroke="#CCCCCC" stroke-width="2"/>
</svg>

<svg xmlns="http://www.w3.org/2000/svg" width="120" height="92" fill="none"><g fill="#fff"><rect x="1" y="1" width="118" height="90" rx="3"/><path d="M27 26h1v-1-7l.028-.964c.198-.034.473-.036.972-.036h16l.964.028c.034.198.036.473.036.972v7 1h1 51l.964.028c.034.198.036.473.036.972v47l-.028.964c-.199.034-.473.036-.972.036H22c-.5 0-.774-.002-.964-.028C21.002 74.774 21 74.5 21 74V27l.028-.964c.198-.034.473-.036.972-.036h5z" stroke="#8796a1" stroke-width="2"/></g><path d="M51 18c0-.943 0-1.414.293-1.707S52.057 16 53 16h15c.943 0 1.414 0 1.707.293S70 17.057 70 18v7c0 .943 0 1.414-.293 1.707S68.943 27 68 27H53c-.943 0-1.414 0-1.707-.293S51 25.943 51 25v-7zm23 0c0-.943 0-1.414.293-1.707S75.057 16 76 16h15c.943 0 1.414 0 1.707.293S93 17.057 93 18v7c0 .943 0 1.414-.293 1.707S91.943 27 91 27H76c-.943 0-1.414 0-1.707-.293S74 25.943 74 25v-7z" fill="#8796a1"/><rect x="1" y="1" width="118" height="90" rx="3" stroke="#ccc" stroke-width="2"/></svg>
